X:335
T:The Breeze from Scotland Will Bring My Love
B:Joyce, P. W.; "Old Irish Folk Music and Songs"
R:song air
O:Irish
L:1/8
M:3/4
Z:Allan Garvin
K:F
(3A=Bc|\
d2 e2 dc|A2 D2 C=B,|C2 F2 E2|D4 A>F|G2 D2 A>F| G2 D2 A>F|
GD FA de|f2 g2 e2|d4 A>F|G2 D2 A>F|GFDEFG|
A2 c2 d2|c4 ((3A=Bc)|d2 e2 dc|A2 D2 C=B,|C2 F2 E2|D4||
